X:19
T:Ma jeunesse
O:France
A:Massif Central
R:Bourre  3 temps
M:3/4
L:1/4
Q:1/4=180
K:F
F|:Gc2|B/2c/2dc|BGA|Bc2|B/2c/2BA|1G2F:|2G2B|
|:AF2|G/2A/2GF|ECB|AF2|G/2A/2GE|1F2B:|2F2||
